X: 1
T: The Harp and the Shamrock
C: Pat Crowley
M: 4/4
L: 1/8
K: G
gf|edAB dBGB|AGEF G2 B/c/d|e2 ed egge|dBAG AABA|
|GEED EEDE|GGAG A2 gf|dege dBGB|AGEF G2 gf|
|edAB d2 B/A/G|AGEF G2 B/c/d|e2 ed egge| dBAG AABA|
|GEED EEDE|GGAG A2 gf|dege dBGB|AGEF G2 B/c/d||
|:e2 ed eggf|eddB d2 BA|GAAG B/c/d e/f/g|dBAG A2 BA|
|G~E3 D3 E|GGAG A2 gf|dege dBGB|1 AGEF G2 B/c/d:|2 AGEF G2 gf|| 
I'll leave it to you to choose when to cut and when to tap to separate the doubled notes (mostly E's A's and G's). The ~E3 roll in the last line of the B part sounds less like a roll and more like three E eighth notes with a more deliberate cut and tap breaking them up. Kevin also plays |GDEG D3 E| for that measure.
